;FLAVOR:Marlin
;TIME:3829
;Filament used: 2.35298m
;Layer height: 0.2
;MINX:125.664
;MINY:110.612
;MINZ:0.24
;MAXX:174.319
;MAXY:189.417
;MAXZ:19.09
;Generated with Cura_SteamEngine 5.2.1
M140 S50
M105
M190 S50
M104 S200
M105
M109 S200
M82 ;absolute extrusion mode
M201 X500.00 Y500.00 Z100.00 E5000.00 ;Setup machine max acceleration
M203 X500.00 Y500.00 Z10.00 E50.00 ;Setup machine max feedrate
M204 P500.00 R1000.00 T500.00 ;Setup Print/Retract/Travel acceleration
M205 X8.00 Y8.00 Z0.40 E5.00 ;Setup Jerk
M220 S100 ;Reset Feedrate
M221 S100 ;Reset Flowrate

G28 ;Home
G29 ;Auto bed Level

G92 E0 ;Reset Extruder
G1 Z2.0 F3000 ;Move Z Axis up
G1 X10.1 Y20 Z0.28 F5000.0 ;Move to start position
G1 X10.1 Y200.0 Z0.28 F1500.0 E15 ;Draw the first line
G1 X10.4 Y200.0 Z0.28 F5000.0 ;Move to side a little
G1 X10.4 Y20 Z0.28 F1500.0 E30 ;Draw the second line
G92 E0 ;Reset Extruder
G1 Z2.0 F3000 ;Move Z Axis up

G92 E0
G92 E0
G1 F2700 E-5
;LAYER_COUNT:90
;LAYER:-6
M107
G0 F9000 X130.769 Y118.945 Z0.24
;TYPE:SUPPORT-INTERFACE
G1 F2700 E0
G1 F1125 X130.259 Y119.619 E0.06747
G1 X129.685 Y120.487 E0.15054
G1 X129.439 Y120.886 E0.18795
G1 X129.006 Y121.638 E0.25722
G1 X128.591 Y122.466 E0.33115
G1 X128.31 Y123.079 E0.38498
G1 X128.046 Y123.701 E0.43892
G1 X127.658 Y124.799 E0.53188
G1 X127.504 Y125.304 E0.57402
G1 X127.285 Y126.093 E0.63938
G1 X127.081 Y127.039 E0.71663
G1 X126.974 Y127.638 E0.7652
G1 X126.849 Y128.511 E0.8356
G1 X126.767 Y129.497 E0.91458
G1 X126.74 Y130.092 E0.96212
G1 X126.729 Y130.865 E1.02383
G1 X126.767 Y131.818 E1.09997
G1 X126.811 Y132.403 E1.1468
G1 X126.885 Y133.112 E1.2037
G1 X127.081 Y134.289 E1.29895
G1 X127.182 Y134.775 E1.33857
G1 X127.338 Y135.443 E1.39333
G1 X127.683 Y136.604 E1.49001
G1 X127.839 Y137.06 E1.52848
G1 X128.164 Y137.917 E1.60164
G1 X128.553 Y138.783 E1.67743
G1 X128.826 Y139.339 E1.72687
G1 X129.19 Y140.026 E1.78893
G1 X129.7 Y140.866 E1.86737
G1 X129.994 Y141.316 E1.91028
G1 X130.418 Y141.927 E1.96965
G1 X131.105 Y142.798 E2.0582
G1 X131.472 Y143.227 E2.10326
G1 X131.969 Y143.776 E2.16238
G1 X132.784 Y144.576 E2.25354
G1 X133.374 Y145.104 E2.31674
G1 X133.683 Y145.394 E2.35057
G1 X134.133 Y145.913 E2.4054
G1 X134.51 Y146.478 E2.45962
G1 X134.806 Y147.076 E2.51288
G1 X135.036 Y147.732 E2.56837
G1 X135.177 Y148.396 E2.62256
G1 X135.233 Y149.06 E2.67575
G1 X135.2 Y149.783 E2.73352
G1 X135.086 Y150.443 E2.78699
G1 X134.886 Y151.089 E2.84097
G1 X134.614 Y151.699 E2.89428
G1 X134.257 Y152.281 E2.94878
G1 X134.103 Y152.514 E2.97108
G1 X133.647 Y153.272 E3.04169
G1 X133.132 Y154.281 E3.13212
G1 X132.692 Y155.33 E3.22292
G1 X132.344 Y156.357 E3.30948
G1 X132.06 Y157.468 E3.40102
G1 X131.882 Y158.435 E3.4795
G1 X131.761 Y159.573 E3.57086
G1 X131.725 Y160.574 E3.65081
G1 X131.726 Y173.351 E4.67073
G1 X131.759 Y174.329 E4.74884
G1 X131.87 Y175.374 E4.83272
G1 X132.052 Y176.385 E4.91472
G1 X132.104 Y176.632 E4.93487
G1 X132.334 Y177.556 E5.01088
G1 X132.637 Y178.484 E5.08881
G1 X133.072 Y179.557 E5.18123
G1 X133.54 Y180.5 E5.26526
G1 X134.098 Y181.437 E5.35232
G1 X134.751 Y182.364 E5.44283
G1 X135.369 Y183.127 E5.52121
G1 X136.136 Y183.942 E5.61055
G1 X136.316 Y184.119 E5.6307
G1 X137.053 Y184.798 E5.71069
G1 X137.885 Y185.46 E5.79556
G1 X138.703 Y186.017 E5.87456
G1 X139.7 Y186.602 E5.96683
G1 X140.645 Y187.063 E6.05076
G1 X141.64 Y187.461 E6.13631
G1 X142.656 Y187.782 E6.22136
G1 X143.851 Y188.062 E6.31933
G1 X144.698 Y188.204 E6.38789
G1 X145.676 Y188.313 E6.46644
G1 X146.806 Y188.353 E6.5567
G1 X147.665 Y188.353 E6.62527
G1 X148.574 Y188.328 E6.69785
G1 X149.692 Y188.224 E6.78748
G1 X150.821 Y188.03 E6.87892
G1 X151.906 Y187.762 E6.96814
G1 X152.825 Y187.473 E7.04504
G1 X153.899 Y187.04 E7.13747
G1 X154.871 Y186.562 E7.22394
G1 X155.632 Y186.122 E7.29411
G1 X156.581 Y185.483 E7.38543
G1 X157.431 Y184.811 E7.47193
G1 X158.19 Y184.113 E7.55424
G1 X158.443 Y183.863 E7.58263
G1 X159.098 Y183.164 E7.6591
G1 X159.731 Y182.397 E7.73848
G1 X160.342 Y181.533 E7.82295
G1 X160.926 Y180.558 E7.91367
G1 X161.409 Y179.598 E7.99946
G1 X161.795 Y178.677 E8.07917
G1 X162.15 Y177.598 E8.16984
G1 X162.426 Y176.521 E8.25859
G1 X162.609 Y175.52 E8.33982
G1 X162.738 Y174.397 E8.43005
G1 X162.791 Y172.874 E8.5517
G1 X162.884 Y172.193 E8.60656
G1 X163.06 Y171.534 E8.66101
G1 X163.318 Y170.904 E8.71535
G1 X163.658 Y170.304 E8.7704
G1 X164.054 Y169.773 E8.82328
G1 X164.53 Y169.276 E8.87821
G1 X164.754 Y169.07 E8.9025
G1 X165.477 Y168.355 E8.98367
G1 X166.164 Y167.62 E9.06398
G1 X166.874 Y166.805 E9.15026
G1 X167.541 Y165.975 E9.23526
G1 X168.113 Y165.205 E9.31183
G1 X168.763 Y164.259 E9.40345
G1 X169.294 Y163.416 E9.48298
G1 X169.9 Y162.362 E9.58003
G1 X170.323 Y161.56 E9.65241
G1 X170.844 Y160.465 E9.7492
G1 X171.206 Y159.626 E9.82214
G1 X171.605 Y158.596 E9.91032
G1 X171.913 Y157.7 E9.98595
G1 X172.258 Y156.557 E10.08125
G1 X172.524 Y155.529 E10.16601
G1 X172.742 Y154.53 E10.24764
G1 X172.92 Y153.543 E10.32769
G1 X173.079 Y152.412 E10.41886
G1 X173.181 Y151.399 E10.50013
G1 X173.249 Y150.283 E10.58938
G1 X173.27 Y149.351 E10.6638
G1 X173.257 Y148.448 E10.73589
G1 X173.25 Y148.085 E10.76487
G1 X173.201 Y147.184 E10.8369
G1 X173.094 Y146.041 E10.92853
G1 X172.97 Y145.096 E11.00461
G1 X172.778 Y143.967 E11.09603
G1 X172.575 Y143.011 E11.17404
G1 X172.276 Y141.827 E11.27152
G1 X172.01 Y140.924 E11.34667
G1 X171.678 Y139.933 E11.43009
G1 X171.297 Y138.927 E11.51596
G1 X170.895 Y137.978 E11.59823
G1 X170.483 Y137.096 E11.67594
G1 X169.921 Y136.004 E11.77397
G1 X169.443 Y135.16 E11.8514
G1 X168.837 Y134.182 E11.94324
G1 X168.309 Y133.396 E12.01883
G1 X167.607 Y132.439 E12.11357
G1 X167.052 Y131.737 E12.185
G1 X166.302 Y130.859 E12.27718
G1 X165.882 Y130.404 E12.3266
G1 X165.576 Y130.045 E12.36426
G1 X165.186 Y129.467 E12.41992
G1 X164.88 Y128.853 E12.47468
G1 X164.653 Y128.211 E12.52904
G1 X164.513 Y127.563 E12.58195
G1 X164.392 Y126.894 E12.63622
G1 X164.185 Y125.958 E12.71274
G1 X163.919 Y125.035 E12.78942
G1 X163.753 Y124.521 E12.83254
G1 X163.504 Y123.826 E12.89147
G1 X163.095 Y122.864 E12.97491
G1 X162.823 Y122.281 E13.02626
G1 X162.442 Y121.536 E13.09306
G1 X161.964 Y120.721 E13.16848
G1 X161.6 Y120.152 E13.2224
G1 X161.129 Y119.466 E13.28882
G1 X160.488 Y118.642 E13.37216
G1 X160.206 Y118.304 E13.40729
G1 X159.729 Y117.762 E13.46493
G1 X158.873 Y116.897 E13.56207
G1 X158.528 Y116.576 E13.59969
G1 X157.977 Y116.088 E13.65844
G1 X157.125 Y115.421 E13.74481
G1 X156.6 Y115.043 E13.79645
G1 X156.057 Y114.674 E13.84886
G1 X155.115 Y114.112 E13.93642
G1 X154.545 Y113.799 E13.98833
G1 X153.949 Y113.496 E14.0417
G1 X152.892 Y113.034 E14.13378
G1 X152.443 Y112.86 E14.17222
G1 X151.669 Y112.581 E14.23789
G1 X150.596 Y112.273 E14.327
G1 X150.121 Y112.154 E14.36609
G1 X149.262 Y111.967 E14.43627
G1 X148.288 Y111.815 E14.51496
G1 X147.793 Y111.755 E14.55476
G1 X146.901 Y111.675 E14.62625
G1 X145.933 Y111.646 E14.70355
G1 X145.285 Y111.65 E14.75528
G1 X144.494 Y111.682 E14.81847
G1 X143.526 Y111.776 E14.89611
G1 X142.956 Y111.851 E14.942
G1 X142.244 Y111.966 E14.99957
G1 X141.178 Y112.204 E15.08676
G1 X140.552 Y112.368 E15.13841
G1 X139.782 Y112.6 E15.20261
G1 X138.889 Y112.927 E15.27852
G1 X138.338 Y113.148 E15.32591
G1 X137.697 Y113.429 E15.38178
G1 X136.664 Y113.957 E15.47438
G1 X136.213 Y114.211 E15.5157
G1 X135.525 Y114.619 E15.57955
G1 X134.685 Y115.196 E15.6609
G1 X134.18 Y115.568 E15.71096
G1 X133.541 Y116.074 E15.77603
G1 X132.788 Y116.744 E15.85648
G1 X132.396 Y117.12 E15.89984
G1 X131.781 Y117.751 E15.97018
G1 X131.184 Y118.434 E16.04259
G1 X130.769 Y118.945 E16.09514
G0 F9000 X130.833 Y119.52
G1 F1125 X170.822 Y159.508 E20.60939
G0 F9000 X170.115 Y161.064
G1 F1125 X129.918 Y120.867 E25.14717
G0 F9000 X129.109 Y122.321
G1 F1125 X169.333 Y162.545 E29.688
G0 F9000 X168.481 Y163.956
G1 F1125 X128.405 Y123.88 E34.21213
G0 F9000 X127.841 Y125.578
G1 F1125 X167.551 Y165.289 E38.69499
G0 F9000 X166.557 Y166.557
G1 F1125 X127.419 Y127.419 E43.11323
G0 F9000 X127.173 Y129.435
G1 F1125 X165.491 Y167.754 E47.43895
G0 F9000 X164.36 Y168.886
G1 F1125 X127.161 Y131.686 E51.63835
G0 F9000 X127.486 Y134.274
G1 F1125 X163.313 Y170.101 E55.68281
G0 F9000 X162.612 Y171.663
G1 F1125 X128.424 Y137.475 E59.54225
G1 F2700 E54.54225
G0 F9000 X127.183 Y138.332
G0 X127.4 Y138.877
G0 X128.268 Y140.559
G0 X129.68 Y142.717
G0 X130.994 Y144.258
G0 X133.28 Y146.554
G0 X134.642 Y145.956
G1 F2700 E59.54225
G1 F1125 X162.363 Y173.676 E62.67158
G0 F9000 X162.162 Y175.738
G1 F1125 X135.628 Y149.204 E65.66697
G0 F9000 X135.29 Y151.129
G1 F1125 X161.736 Y177.575 E68.65242
G0 F9000 X161.129 Y179.231
G1 F1125 X134.514 Y152.616 E71.65695
G0 F9000 X133.694 Y154.058
G1 F1125 X160.359 Y180.724 E74.66718
G0 F9000 X159.46 Y182.087
G1 F1125 X133.009 Y155.637 E77.65315
G0 F9000 X132.494 Y157.384
G1 F1125 X158.416 Y183.306 E80.57944
G0 F9000 X157.265 Y184.418
G1 F1125 X132.187 Y159.34 E83.41047
G0 F9000 X132.125 Y161.54
G1 F1125 X155.984 Y185.4 E86.10393
G0 F9000 X154.579 Y186.258
G1 F1125 X132.125 Y163.803 E88.63879
G0 F9000 X132.125 Y166.066
G1 F1125 X153.02 Y186.961 E90.9976
G0 F9000 X151.295 Y187.499
G1 F1125 X132.125 Y168.328 E93.16173
G0 F9000 X132.125 Y170.591
G1 F1125 X149.383 Y187.849 E95.10996
G0 F9000 X147.223 Y187.952
G1 F1125 X132.125 Y172.854 E96.81436
G0 F9000 X132.259 Y175.251
G1 F1125 X144.823 Y187.815 E98.23269
G0 F9000 X141.853 Y187.108
G1 F1125 X132.974 Y178.229 E99.23503
G1 F2700 E94.23503
G0 F9000 X131.584 Y178.684
G0 X132.143 Y180.082
G0 X133.143 Y181.917
G0 X133.907 Y183.016
G0 X135.377 Y184.69
G0 X136.445 Y185.674
G0 X138.127 Y186.913
G0 X139.284 Y187.584
G0 X141.186 Y188.426
G0 X142.473 Y188.833
G0 X144.557 Y189.26
G0 X146.791 Y189.417
G0 X148.794 Y189.381
G0 X151.014 Y189.075
G0 X153.094 Y188.504
G0 X154.34 Y188.01
G0 X156.189 Y187.03
G0 X157.322 Y186.257
G0 X158.991 Y184.82
G0 X159.902 Y183.862
G0 X161.172 Y182.205
G0 X161.864 Y181.063
G0 X171.816 Y160.901
G0 X172.645 Y158.851
G0 X171.435 Y157.858
G1 F2700 E99.23503
G1 F1125 X131.852 Y118.275 E103.7035
G0 F9000 X132.966 Y117.127
G1 F1125 X171.957 Y156.118 E108.10514
G0 F9000 X172.38 Y154.278
G1 F1125 X134.18 Y116.078 E112.41748
G0 F9000 X135.492 Y115.127
G1 F1125 X172.686 Y152.321 E116.61626
G0 F9000 X172.849 Y150.222
G1 F1125 X136.909 Y114.281 E120.67354
G0 F9000 X138.433 Y113.542
G1 F1125 X172.841 Y147.951 E124.55787
G0 F9000 X172.613 Y145.461
G1 F1125 X140.081 Y112.928 E128.23042
G0 F9000 X141.874 Y112.458
G1 F1125 X172.072 Y142.656 E131.63943
G0 F9000 X171.03 Y139.351
G1 F1125 X143.827 Y112.149 E134.71028
G0 F9000 X145.989 Y112.048
G1 F1125 X168.761 Y134.82 E137.28098
G1 F2700 E132.28098
G0 F9000 X169.775 Y133.673
G0 X165.682 Y127.93
G0 X164.195 Y127.991
G1 F2700 E137.28098
G1 F1125 X148.448 Y112.244 E139.05864
G0 F9000 X151.381 Y112.915
G1 F1125 X163.495 Y125.029 E140.42617
G1 F2700 E135.42617
G0 F9000 X164.595 Y123.735
G0 X163.862 Y122.007
G0 X162.875 Y120.171
G0 X161.557 Y120.828
G1 F2700 E140.42617
G1 F1125 X155.591 Y114.862 E141.09967
G1 F2700 E136.09967
G0 F300 X155.591 Y114.862 Z0.54
G0 F9000 X156.339 Y113.597
G0 X154.154 Y112.397
G0 X151.905 Y111.542
G0 X149.447 Y110.918
G0 X146.956 Y110.612
G0 X144.413 Y110.62
G0 X141.858 Y110.956
G0 X139.438 Y111.593
G0 X137.071 Y112.548
G0 X134.855 Y113.788
G0 X132.85 Y115.263
G0 X131.179 Y116.857
G0 X129.992 Y118.211
G0 X130.953 Y119.362
;TIME_ELAPSED:107.758815
;LAYER:-5
;TYPE:SUPPORT
G1 F2700 E141.09967
G1 F1125 X130.592 Y119.841 E141.15951
G1 X130.018 Y120.701 E141.26268
G1 X129.736 Y121.163 E141.31669
G1 X129.368 Y121.806 E141.39061
G1 X128.812 Y122.917 E141.51458
G1 X137.995 Y113.734 E142.8104
G1 X138.503 Y113.512 E142.86572
G1 X139.024 Y113.302 E142.92177
G1 X139.922 Y112.974 E143.01716
G1 X140.275 Y112.869 E143.05391
G1 X127.946 Y125.197 E144.79359
G1 X127.669 Y126.198 E144.89722
G1 X127.48 Y127.078 E144.98703
G1 X142.179 Y112.379 E147.06122
G1 X143.011 Y112.246 E147.14529
G1 X143.824 Y112.147 E147.22701
G1 X127.231 Y128.74 E149.56846
G1 X127.165 Y129.537 E149.64826
G1 X127.137 Y130.249 E149.71936
G1 X145.337 Y112.049 E152.28758
G1 X145.916 Y112.044 E152.34535
G1 X146.731 Y112.069 E152.42671
G1 X127.16 Y131.64 E155.18839
G1 X127.207 Y132.355 E155.25989
G1 X127.27 Y132.945 E155.31909
G1 X148.036 Y112.179 E158.2494
G1 X149.255 Y112.374 E158.37258
G1 X127.464 Y134.165 E161.44752
G1 X127.574 Y134.706 E161.50261
G1 X127.719 Y135.324 E161.56595
G1 X150.407 Y112.636 E164.76747
G1 X151.505 Y112.952 E164.88148
G1 X128.043 Y136.414 E168.19222
G1 X128.216 Y136.926 E168.24614
G1 X128.416 Y137.455 E168.30257
G1 X152.549 Y113.322 E171.708
G1 X153.534 Y113.751 E171.8152
G1 X128.834 Y138.451 E175.30064
G1 X129.143 Y139.08 E175.37056
G1 X129.308 Y139.391 E175.40569
G1 X154.48 Y114.219 E178.95773
G1 X154.804 Y114.394 E178.99448
G1 X155.381 Y114.733 E179.06125
G1 X129.821 Y140.293 E182.66804
G1 X130.031 Y140.642 E182.70869
G1 X130.372 Y141.156 E182.77023
G1 X156.244 Y115.284 E186.42105
G1 X157.069 Y115.873 E186.5222
G1 X130.967 Y141.975 E190.20547
G1 X131.413 Y142.543 E190.27753
G1 X131.598 Y142.758 E190.30583
G1 X157.848 Y116.509 E194.00992
G1 X158.266 Y116.879 E194.06562
G1 X158.589 Y117.182 E194.10981
G1 X132.262 Y143.509 E197.82483
G1 X132.977 Y144.208 E197.92461
G1 X159.305 Y117.88 E201.63977
G1 X159.963 Y118.636 E201.73978
G1 X133.718 Y144.881 E205.44323
G1 X133.971 Y145.115 E205.47762
G1 X134.401 Y145.613 E205.54327
G1 X160.589 Y119.424 E209.23875
G1 X160.796 Y119.689 E209.2723
G1 X161.18 Y120.247 E209.33989
G1 X134.954 Y146.474 E213.04073
G1 X135.179 Y146.926 E213.09111
G1 X135.369 Y147.472 E213.14879
G1 X161.728 Y121.113 E216.86833
G1 X162.248 Y122.008 E216.97162
G1 X135.601 Y148.655 E220.73179
G1 X135.635 Y149.068 E220.77314
G1 X135.601 Y149.802 E220.84646
G1 X135.546 Y150.124 E220.87906
G1 X162.701 Y122.969 E224.71092
G1 X163.125 Y123.96 E224.81847
G1 X134.602 Y152.482 E228.84331
G1 X134.45 Y152.709 E228.87056
G1 X133.988 Y153.479 E228.96016
G1 X133.522 Y154.389 E229.06218
G1 X133.095 Y155.404 E229.17205
G1 X163.493 Y125.005 E233.46161
G1 X163.806 Y126.106 E233.57582
G1 X132.468 Y157.445 E237.99802
G1 X132.279 Y158.477 E238.10271
G1 X132.21 Y159.117 E238.16694
G1 X164.056 Y127.271 E242.66075
G1 X164.118 Y127.635 E242.69759
G1 X164.295 Y128.446 E242.78042
G1 X132.123 Y160.618 E247.32024
G1 X132.123 Y162.032 E247.46133
G1 X164.721 Y129.434 E252.06126
G1 X164.843 Y129.676 E252.0883
G1 X165.269 Y130.3 E252.16369
G1 X132.123 Y163.447 E256.84102
G1 X132.123 Y164.861 E256.98211
G1 X165.933 Y131.05 E261.75313
G1 X166.588 Y131.81 E261.85324
G1 X132.123 Y166.275 E266.71663
G1 X132.123 Y167.689 E266.85772
G1 X167.223 Y132.59 E271.81063
G1 X167.82 Y133.407 E271.9116
G1 X132.123 Y169.103 E276.94876
G1 X132.123 Y170.518 E277.08995
G1 X168.402 Y134.238 E282.20938
G1 X168.942 Y135.113 E282.31198
G1 X132.123 Y171.932 E287.50753
G1 X132.125 Y173.344 E287.64842
G1 X169.462 Y136.007 E292.91708
G1 X169.594 Y136.24 E292.9438
G1 X169.95 Y136.934 E293.02163
G1 X132.199 Y174.685 E298.3487
G1 X132.264 Y175.307 E298.4111
G1 X132.375 Y175.923 E298.47356
G1 X170.41 Y137.887 E303.84078
G1 X170.532 Y138.148 E303.86952
G1 X170.839 Y138.873 E303.94808
G1 X132.628 Y177.084 E309.34007
G1 X132.695 Y177.355 E309.36792
G1 X132.957 Y178.169 E309.45325
G1 X171.24 Y139.886 E314.85539
G1 X171.594 Y140.946 E314.9669
G1 X133.34 Y179.2 E320.36495
G1 X133.81 Y180.145 E320.47026
G1 X171.917 Y142.037 E325.84764
G1 X172.201 Y143.168 E325.964
G1 X134.315 Y181.053 E331.31005
G1 X134.9 Y181.883 E331.41137
G1 X172.436 Y144.347 E336.70811
G1 X172.571 Y145.14 E336.78837
G1 X172.627 Y145.57 E336.83164
G1 X135.507 Y182.69 E342.06967
G1 X136.193 Y183.419 E342.16956
G1 X172.767 Y146.844 E347.33061
G1 X172.802 Y147.213 E347.3676
G1 X172.85 Y148.176 E347.46381
G1 X136.909 Y184.117 E352.53547
G1 X137.385 Y184.55 E352.59968
G1 X137.665 Y184.774 E352.63545
G1 X172.864 Y149.576 E357.60234
G1 X172.848 Y150.279 E357.67251
G1 X172.801 Y151.053 E357.74988
G1 X138.475 Y185.379 E362.59365
G1 X138.923 Y185.684 E362.64773
G1 X139.34 Y185.928 E362.69593
G1 X172.645 Y152.623 E367.39563
G1 X172.527 Y153.466 E367.48056
G1 X172.377 Y154.305 E367.56561
G1 X140.255 Y186.427 E372.09837
